X:56
T:Rabbit House
M:4/4
L:1/16
R:Hornpipe
C:Gris Sanderson
Q:700
N:When you keep animals you sometimes have to do mundane 
N:tasks like build a rabbit house. While I was doing it this tune 
N:was going around inside my head.
K:Amix
A4A3B c3Ac3e|d4B3A G3AB3G|A4A3B c3Ac3e|g3fd3B G3Bd3B|
c3AA3B c3Ac3e|d4B3A G4B3d|~c4A3B c3Ac3e|g3af3d B3GB3d:|
e3Ae3a g4g3f|e4d3c A4G3A|=F4F3G A3B=c3A|B3AG3A B3cd3B|
c3Ae3a ~g4g3f|e4d3c A4G3A|=F4F3G A3B=c3A|B3AG3A D4G3D|
E3AA3c c3ee3a|g4f3e d3cA3G|=F4F3E F3ED3F|E4E3D E3CG,4|
F4D3A, D3FA3d|B3GE3D =C4C4|_B,4B,3=C D3E=F3D|E3=CE3G =c3de3c||
